picto/tracks-8-fr-small-framed.svg

<svg class="color-immutable" width="30" height="30" viewBox="0 0 30 30" fill="none" xmlns="http://www.w3.org/2000/svg"><path d="M30 0H0V30H30V0Z" fill="#2D327D"/><path d="M25.5 3C26.325 3 27 3.675 27 4.5V25.5C27 26.325 26.325 27 25.5 27H4.5C3.675 27 3 26.325 3 25.5V4.5C3 3.675 3.675 3 4.5 3H25.5ZM25.5 2.625H4.5C3.46613 2.625 2.625 3.46613 2.625 4.5V25.5C2.625 26.5339 3.46613 27.375 4.5 27.375H25.5C26.5339 27.375 27.375 26.5339 27.375 25.5V4.5C27.375 3.46613 26.5339 2.625 25.5 2.625Z" fill="white"/><path d="M12.9044 17.963C12.3814 17.7836 11.9802 17.4889 11.7009 17.0786C11.4213 16.6685 11.2818 16.1711 11.2818 15.5867C11.2818 14.6126 11.6817 13.8359 12.4815 13.2564C13.189 12.7438 14.0298 12.4874 15.0039 12.4874C16.1114 12.4874 17.0162 12.7925 17.7186 13.4025C18.3851 13.9768 18.7183 14.6868 18.7183 15.5328C18.7183 16.1225 18.5772 16.6275 18.2954 17.0478C18.0132 17.4683 17.6133 17.7733 17.0957 17.9629C17.5005 18.0809 17.8314 18.2321 18.0877 18.4167C18.8004 18.9346 19.1568 19.6908 19.1568 20.6854C19.1568 21.8287 18.7183 22.7387 17.8416 23.4154C17.1033 23.9845 16.1549 24.2691 14.9963 24.2691C13.7401 24.2691 12.7404 23.9564 11.997 23.3308C11.2228 22.6798 10.8358 21.8262 10.8358 20.7699C10.8358 19.7805 11.1792 19.014 11.8663 18.4705C12.1788 18.2297 12.525 18.0605 12.9044 17.963ZM14.9577 18.8089C14.404 18.8089 13.9515 18.9794 13.6004 19.3204C13.2492 19.6614 13.0736 20.0984 13.0736 20.6315C13.0736 21.1802 13.2517 21.6262 13.608 21.9697C13.9643 22.3132 14.427 22.4849 14.9961 22.4849C15.642 22.4849 16.1266 22.2953 16.4496 21.9158C16.7622 21.5518 16.9187 21.1314 16.9187 20.6546C16.9187 20.1112 16.7392 19.6652 16.3803 19.3165C16.0369 18.9782 15.5626 18.8089 14.9577 18.8089ZM14.9731 14.2331C14.481 14.2331 14.0835 14.3704 13.7811 14.6446C13.4785 14.9189 13.3273 15.2791 13.3273 15.7251C13.3273 16.1918 13.4798 16.5647 13.7849 16.8441C14.0898 17.1236 14.4988 17.2632 15.0114 17.2632C15.5241 17.2632 15.9291 17.1248 16.2265 16.8479C16.5239 16.5711 16.6725 16.1942 16.6725 15.7174C16.6725 15.2509 16.5227 14.8868 16.2227 14.6254C15.9229 14.3639 15.5062 14.2331 14.9731 14.2331Z" fill="white"/><path d="M8.03591 6L7.28839 8.24865H6.73009L5.99329 6H6.50704L7.01306 7.6842L7.52681 6H8.03591Z" fill="white"/><path d="M8.87413 6.5229C9.11818 6.5229 9.3176 6.6039 9.47248 6.7659C9.62525 6.92588 9.70168 7.13918 9.70168 7.40573C9.70168 7.68158 9.62015 7.90148 9.4571 8.06558C9.30433 8.21835 9.10543 8.29478 8.86033 8.29478C8.59888 8.29478 8.39068 8.20965 8.23588 8.03948C8.0882 7.87748 8.0144 7.66725 8.0144 7.40888C8.0144 7.15455 8.08618 6.94793 8.22973 6.789C8.38865 6.61163 8.60345 6.5229 8.87413 6.5229ZM8.8511 6.87053C8.7332 6.87053 8.63938 6.91823 8.56963 7.01355C8.4989 7.10993 8.4635 7.2417 8.4635 7.40888C8.4635 7.5822 8.49838 7.71495 8.56813 7.80728C8.6399 7.90058 8.73785 7.94723 8.8619 7.94723C8.97778 7.94723 9.06958 7.9047 9.13723 7.81958C9.2141 7.72523 9.25258 7.58835 9.25258 7.40888C9.25258 7.24073 9.21875 7.11 9.15103 7.0167C9.0803 6.91928 8.98033 6.87053 8.8511 6.87053Z" fill="white"/><path d="M10.4491 6V6.40147H10.0031V6H10.4491ZM10.4491 6.57217V8.24873H10.0031V6.57217H10.4491Z" fill="white"/><path d="M12.321 7.72575C12.2975 7.8201 12.2549 7.90875 12.1934 7.99185C12.0457 8.19382 11.8334 8.29485 11.5566 8.29485C11.3064 8.29485 11.1059 8.21587 10.9552 8.058C10.8814 7.98112 10.825 7.88827 10.786 7.7796C10.7439 7.66372 10.7229 7.54275 10.7229 7.4166C10.7229 7.17255 10.7932 6.9675 10.9337 6.80137C11.0906 6.61575 11.2936 6.52297 11.5427 6.52297C11.7437 6.52297 11.915 6.585 12.0565 6.70905C12.158 6.79822 12.2318 6.90825 12.278 7.03897C12.3241 7.1697 12.3472 7.33402 12.3472 7.53195H11.1767C11.1809 7.614 11.1937 7.68217 11.2152 7.73655C11.2757 7.88317 11.3906 7.95652 11.5598 7.95652C11.6428 7.95652 11.7105 7.9383 11.7628 7.90192C11.8151 7.86555 11.8581 7.80682 11.892 7.72582H12.321V7.72575ZM11.8919 7.23202C11.8838 7.15102 11.8653 7.08382 11.8366 7.0305C11.8079 6.97822 11.7671 6.93667 11.7143 6.90592C11.6615 6.87517 11.6039 6.8598 11.5413 6.8598C11.4419 6.8598 11.3598 6.8931 11.2952 6.95977C11.2307 7.02645 11.1922 7.1172 11.1799 7.23202H11.8919Z" fill="white"/></svg>

<svg class="color-immutable" width="30" height="30" viewBox="0 0 30 30" fill="none" xmlns="http://www.w3.org/2000/svg"><g clip-path="url(#a)"><path d="M30 0H0v30h30V0Z" fill="#2D327D"/><path d="M25.5 3c.825 0 1.5.675 1.5 1.5v21c0 .825-.675 1.5-1.5 1.5h-21c-.825 0-1.5-.675-1.5-1.5v-21C3 3.675 3.675 3 4.5 3h21Zm0-.375h-21A1.877 1.877 0 0 0 2.625 4.5v21c0 1.034.841 1.875 1.875 1.875h21a1.877 1.877 0 0 0 1.875-1.875v-21A1.877 1.877 0 0 0 25.5 2.625Z" fill="#fff"/><path d="M12.904 17.963c-.523-.18-.924-.474-1.203-.884-.28-.41-.42-.908-.42-1.492 0-.974.4-1.751 1.2-2.33.708-.513 1.549-.77 2.523-.77 1.107 0 2.012.306 2.715.915.666.575 1 1.285 1 2.13 0 .59-.142 1.096-.424 1.516-.282.42-.682.725-1.2.915.405.118.736.27.993.454.712.518 1.069 1.274 1.069 2.268 0 1.144-.439 2.054-1.315 2.73-.739.57-1.687.854-2.846.854-1.256 0-2.256-.313-2.999-.938-.774-.651-1.161-1.505-1.161-2.561 0-.99.343-1.756 1.03-2.3.313-.24.659-.41 1.038-.507Zm2.054.846c-.554 0-1.007.17-1.358.511-.35.341-.526.778-.526 1.311 0 .55.178.995.534 1.339.356.343.819.515 1.388.515.646 0 1.13-.19 1.454-.57.312-.363.469-.784.469-1.26 0-.544-.18-.99-.539-1.338-.343-.339-.817-.508-1.422-.508Zm.015-4.576c-.492 0-.89.137-1.192.412-.303.274-.454.634-.454 1.08 0 .467.153.84.458 1.12.305.279.714.418 1.226.418.513 0 .918-.138 1.216-.415.297-.277.445-.654.445-1.13 0-.467-.15-.831-.45-1.093-.3-.261-.716-.392-1.249-.392ZM8.036 6l-.748 2.249H6.73L5.993 6h.514l.506 1.684L7.527 6h.509ZM8.874 6.523c.244 0 .444.08.598.243.153.16.23.373.23.64 0 .276-.082.495-.245.66a.807.807 0 0 1-.597.229c-.261 0-.47-.085-.624-.256-.148-.162-.222-.372-.222-.63 0-.254.072-.461.216-.62.159-.177.373-.266.644-.266Zm-.023.348a.331.331 0 0 0-.281.143.656.656 0 0 0-.107.395c0 .173.035.306.105.398a.35.35 0 0 0 .294.14.333.333 0 0 0 .275-.127c.077-.095.116-.232.116-.411 0-.168-.034-.299-.102-.392a.349.349 0 0 0-.3-.146ZM10.45 6v.401h-.447V6h.446Zm0 .572V8.25h-.447V6.572h.446ZM12.321 7.726a.75.75 0 0 1-.128.266c-.147.202-.36.303-.636.303-.25 0-.451-.08-.602-.237a.773.773 0 0 1-.169-.278 1.055 1.055 0 0 1-.063-.363c0-.244.07-.45.21-.616a.76.76 0 0 1 .61-.278c.2 0 .372.062.514.186.101.09.175.2.221.33.046.13.07.295.07.493h-1.171c.004.082.017.15.038.205.06.146.176.22.345.22.083 0 .15-.019.203-.055a.39.39 0 0 0 .129-.176h.429Zm-.43-.494a.537.537 0 0 0-.054-.202.337.337 0 0 0-.295-.17c-.1 0-.182.033-.247.1a.447.447 0 0 0-.115.272h.712Z" fill="#fff"/></g><defs><clipPath id="a"><path fill="#fff" d="M0 0h30v30H0z"/></clipPath></defs></svg>
